public/Chance.svg

<svg fill="none" height="72" viewBox="0 0 72 72" width="72" xmlns="http://www.w3.org/2000/svg" xmlns:xlink="http://www.w3.org/1999/xlink"><radialGradient id="a" cx="0" cy="0" gradientTransform="matrix(65.37933034 -72.00000268 71.66633824 65.07634761 3 72)" gradientUnits="userSpaceOnUse" r="1"><stop offset="0" stop-color="#ff705c"/><stop offset="1" stop-color="#dc4200"/></radialGradient><path d="m26.925 11.2662c.3555 0 .6016-.2187.6836-.6016.5742-3.66422.6015-3.69157 4.3202-4.34785.4101-.10938.6562-.32814.6562-.68363 0-.38283-.2461-.6016-.6015-.68363-3.8007-.76567-3.746-.76567-4.3749-4.347895-.082-.382833-.3281-.601595-.6836-.601595-.3554 0-.6015.246107-.6562.601595-.6836 3.664265-.6015 3.691605-4.3749 4.347895-.3828.08203-.6288.32814-.6288.68363 0 .32814.2187.57425.6015.68363 3.8007.73832 3.7733.71098 4.4022 4.37525.0547.3281.3008.5742.6562.5742zm18.9487 6.8363c.5468 0 .9296-.3828.9843-.9297.7109-5.7972.9297-5.9886 6.8904-6.9183.6289-.0821.9844-.43756.9844-.98447 0-.49221-.3555-.87504-.8477-.92973-6.0701-1.23054-6.3162-1.1485-7.0271-6.94569-.0547-.546908-.4375-.902396-.9843-.902396-.4922 0-.875.355488-.9297.875046-.7656 5.96126-.9297 6.12533-6.9998 6.97304-.4922.02734-.875.43752-.875.92973 0 .51956.3555.87507.8477.98447 6.1248 1.2305 6.2342 1.1485 7.0271 6.973.0547.4922.4648.875.9297.875zm-6.9725 2.7619-3.8006-3.801c-1.3398-1.3399-3.3359-1.3125-4.6483 0-.0547.0821-.1367.1368-.1914.2461l7.6286 7.6294c.0547-1.504.3828-2.8713 1.0117-4.0745zm-14.4097 42.057c8.4216 8.4223 19.3588 7.6293 27.0421-.0547 5.2499-5.2776 6.8631-10.9108 5.3866-17.6377-.793-5.305-4.1014-11.5397-6.0428-15.2039-1.3398-2.6252-3.0351-6.016-3.9921-7.2465-1.0663-1.422-2.7616-1.6954-4.1287-.6837-1.5586 1.1485-1.75 2.8713-.957 5.0863l3.1171 8.3129c.2734.6836.2187 1.0665-.0274 1.3126-.2734.3008-.6562.3555-1.2031-.1914l-19.5228-19.5519c-1.3398-1.3125-3.3358-1.3125-4.6483 0-1.3125 1.3126-1.3125 3.3361 0 4.6487l14.5738 14.5477c-.6016.3008-1.1758.6289-1.7773 1.0118l-16.7339-16.7353c-1.3124-1.3126-3.3085-1.3126-4.6209 0-1.33982 1.3399-1.33982 3.3361 0 4.6487l16.5151 16.5165c-.4375.5469-.875 1.0664-1.2578 1.6134l-15.2026-15.204c-1.31249-1.2852-3.33587-1.3126-4.64832 0-1.31246 1.3126-1.28512 3.3361 0 4.6487l16.48772 16.4618c-.3007.711-.4921 1.4493-.6835 2.133l-11.4567-11.485c-1.33981-1.3126-3.33584-1.34-4.6483-.0274-1.31245 1.3399-1.31245 3.3361 0 4.676zm37.9793-.0547c5.2498-5.2776 6.8631-10.9108 5.3865-17.6377-.8202-5.305-4.1014-11.5397-6.0427-15.2039-1.3398-2.6252-3.0624-6.016-3.9921-7.2465-1.0664-1.422-2.7616-1.6954-4.1288-.6837-.6835.4923-1.121 1.0939-1.3124 1.7775.7929 1.5313 1.5859 3.09 2.4061 4.6213 1.8867 3.5276 5.3866 10.2545 6.1795 16.1337 1.7226 8.1489-.4375 15.0946-6.5076 21.1652-1.1484 1.1485-2.3515 2.133-3.5819 3.008 4.1561-.4922 8.2029-2.5431 11.5934-5.9339zm-51.7328 9.1333c.4649 0 .793-.3281.8477-.793.8476-5.0589.8476-5.1409 6.0974-6.0707.5195-.1093.8203-.3828.8203-.875s-.3008-.7657-.7656-.8477c-5.3318-1.0665-5.2772-1.1212-6.1521-6.0706-.0547-.4923-.3828-.8204-.8477-.8204-.4648 0-.76556.3281-.84759.793-.87497 5.0862-.79294 5.1683-6.09747 6.098-.46483.082-.79294.3555-.79294.8477s.30077.7657.79294.875c5.30453 1.0392 5.24984 1.0665 6.09747 6.098.08203.4376.38279.7657.84759.7657z" fill="url(#a)"/></svg>

<svg width="72" height="72" viewBox="0 0 72 72" fill="none" xmlns="http://www.w3.org/2000/svg">
<path d="M26.925 11.2662C27.2805 11.2662 27.5266 11.0475 27.6086 10.6646C28.1828 7.00038 28.2101 6.97303 31.9288 6.31675C32.3389 6.20737 32.585 5.98861 32.585 5.63312C32.585 5.25029 32.3389 5.03152 31.9835 4.94949C28.1828 4.18382 28.2375 4.18382 27.6086 0.601595C27.5266 0.218762 27.2805 0 26.925 0C26.5696 0 26.3235 0.246107 26.2688 0.601595C25.5852 4.26586 25.6673 4.2932 21.8939 4.94949C21.5111 5.03152 21.2651 5.27763 21.2651 5.63312C21.2651 5.96126 21.4838 6.20737 21.8666 6.31675C25.6673 7.05507 25.6399 7.02773 26.2688 10.692C26.3235 11.0201 26.5696 11.2662 26.925 11.2662ZM45.8737 18.1025C46.4205 18.1025 46.8033 17.7197 46.858 17.1728C47.5689 11.3756 47.7877 11.1842 53.7484 10.2545C54.3773 10.1724 54.7328 9.81694 54.7328 9.27003C54.7328 8.77782 54.3773 8.39499 53.8851 8.3403C47.815 7.10976 47.5689 7.1918 46.858 1.39461C46.8033 0.847702 46.4205 0.492214 45.8737 0.492214C45.3815 0.492214 44.9987 0.847702 44.944 1.36726C44.1784 7.32852 44.0143 7.49259 37.9442 8.3403C37.452 8.36764 37.0692 8.77782 37.0692 9.27003C37.0692 9.78959 37.4247 10.1451 37.9169 10.2545C44.0417 11.485 44.1511 11.403 44.944 17.2275C44.9987 17.7197 45.4088 18.1025 45.8737 18.1025ZM38.9012 20.8644L35.1006 17.0634C33.7608 15.7235 31.7647 15.7509 30.4523 17.0634C30.3976 17.1455 30.3156 17.2002 30.2609 17.3095L37.8895 24.9389C37.9442 23.4349 38.2723 22.0676 38.9012 20.8644ZM24.4915 62.9214C32.9131 71.3437 43.8503 70.5507 51.5336 62.8667C56.7835 57.5891 58.3967 51.9559 56.9202 45.229C56.1272 39.924 52.8188 33.6893 50.8774 30.0251C49.5376 27.3999 47.8423 24.0091 46.8853 22.7786C45.819 21.3566 44.1237 21.0832 42.7566 22.0949C41.198 23.2434 41.0066 24.9662 41.7996 27.1812L44.9167 35.4941C45.1901 36.1777 45.1354 36.5606 44.8893 36.8067C44.6159 37.1075 44.2331 37.1622 43.6862 36.6153L24.1634 17.0634C22.8236 15.7509 20.8276 15.7509 19.5151 17.0634C18.2026 18.376 18.2026 20.3995 19.5151 21.7121L34.0889 36.2598C33.4873 36.5606 32.9131 36.8887 32.3116 37.2716L15.5777 20.5363C14.2653 19.2237 12.2692 19.2237 10.9568 20.5363C9.61698 21.8762 9.61698 23.8724 10.9568 25.185L27.4719 41.7015C27.0344 42.2484 26.5969 42.7679 26.2141 43.3149L11.0115 28.1109C9.69901 26.8257 7.67563 26.7983 6.36318 28.1109C5.05072 29.4235 5.07806 31.447 6.36318 32.7596L22.8509 49.2214C22.5502 49.9324 22.3588 50.6707 22.1674 51.3544L10.7107 39.8694C9.37089 38.5568 7.37486 38.5294 6.0624 39.842C4.74995 41.1819 4.74995 43.1781 6.0624 44.518L24.4915 62.9214ZM62.4708 62.8667C67.7206 57.5891 69.3339 51.9559 67.8573 45.229C67.0371 39.924 63.7559 33.6893 61.8146 30.0251C60.4748 27.3999 58.7522 24.0091 57.8225 22.7786C56.7561 21.3566 55.0609 21.0832 53.6937 22.0949C53.0102 22.5872 52.5727 23.1888 52.3813 23.8724C53.1742 25.4037 53.9672 26.9624 54.7874 28.4937C56.6741 32.0213 60.174 38.7482 60.9669 44.6274C62.6895 52.7763 60.5294 59.722 54.4593 65.7926C53.3109 66.9411 52.1078 67.9256 50.8774 68.8006C55.0335 68.3084 59.0803 66.2575 62.4708 62.8667ZM10.738 72C11.2029 72 11.531 71.6719 11.5857 71.207C12.4333 66.1481 12.4333 66.0661 17.6831 65.1363C18.2026 65.027 18.5034 64.7535 18.5034 64.2613C18.5034 63.7691 18.2026 63.4956 17.7378 63.4136C12.406 62.3471 12.4606 62.2924 11.5857 57.343C11.531 56.8507 11.2029 56.5226 10.738 56.5226C10.2732 56.5226 9.97244 56.8507 9.89041 57.3156C9.01544 62.4018 9.09747 62.4839 3.79294 63.4136C3.32811 63.4956 3 63.7691 3 64.2613C3 64.7535 3.30077 65.027 3.79294 65.1363C9.09747 66.1755 9.04278 66.2028 9.89041 71.2343C9.97244 71.6719 10.2732 72 10.738 72Z" fill="url(#paint0_radial)"/>
<defs>
<radialGradient id="paint0_radial" cx="0" cy="0" r="1" gradientUnits="userSpaceOnUse" gradientTransform="translate(3 72) rotate(-47.7591) scale(97.2546 96.8039)">
<stop stop-color="#FF705C"/>
<stop offset="1" stop-color="#DC4200"/>
</radialGradient>
</defs>
</svg>
